X: 21
T:Double Setback, Headington 1
M:2/2
L:1/8
A:Headington
P:A(AB)4
K:G
P:A
Bc|dBdB G2FG|ABAF D2Bc|d2gf edcB|c2A2 A2Bc|
dedB G2FG|ABAF D2Bc|d2gf edcA|B2G2 G2  ||
P:B
|:Bc|d2g2 d2Bc|d2g2 d2Bc|d2gf edcB|1c2A2 A2:|2e2A2 A2||
